X:1
T:Title
%%score ( 1 2 ) { 3 | 4 }
L:1/8
Q:1/4=108
M:6/8
K:Bb
V:1 treble nm="Grand Piano, Soprano"
V:2 treble 
V:3 bass nm="Choir Pad, The Bright and Morning Star"
V:4 bass 
V:1
 [DF] [DF]2 [B,D] [CE]2 | [EG] [DF]2- [DF] [DB]2 | [DB] [Fd]2 [Ec] [DB]2 | %3
w: By~William~Augustine~Ogden * * *|||
 [EG] [DF]2- [DF]2- [DF]/ z/ | [DF] [DF]2 [B,D] [CE]2 | [EG] [DF]2- [DF] [FB]2 | %6
w: |||
 [FB] [FA]2 [FB] [FA]2 | [=EG] F2- F2- F/ z/ | F F2 [FG] [FA]2 | [FB] [Fc]2- [Fc] [FA]2 | %10
w: ||||
 [FA] [FB]2 [Fc] [Fd]2 | [=Ec] [Fc]2- [Fc]2- [Fc]/ z/ | [Fc] [Fd]2 [Ec] [DB]2 | %13
w: |||
 [DF] [EG]2- [EG] [EB]2 | [EG] [DF]2 [DB] [DB]2 | [Ec] [DB]2- [DB]2- [DB]/ z/ | z F2- F/ z/ G2- | %17
w: ||||
 G3 z3 | z d2- d/ z/ B2- | B3 z3 | [Fc] [Fd]2 [Fc] [DB]2 | [DF] [EG]2- [EG] [EB]2 | %22
w: |||||
 [EG] [DF]2 [DB] [DB]2 | [Ec] [DB]2- [DB]3- | [DB]3 z3 |] %25
w: |||
V:2
 x6 | x6 | x6 | x6 | x6 | x6 | x6 | x6 | x6 | x6 | x6 | x6 | x6 | x6 | x6 | x6 | [DF] D2 D E2 | %17
 E [DF]2- [DF]2- [DF]/ z/ | [DF] F2 F F2 | F [Fc]2- [Fc]2- [Fc]/ z/ | x6 | x6 | x6 | x6 | x6 |] %25
V:3
 B, B,2 B, B,2 | B, B,2- B, F,2 | B, B,2 B, B,2 | B, B,2- B,2- B,/ z/ | B, B,2 B, B,2 | %5
 B, B,2- B,[K:treble] D2 | D C2 D C2 | B, A,2- A,2- A,/ z/ | A, A,2 B,[K:treble] C2 | D E2- E C2 | %10
 C[K:bass] B,2 A, B,2 | B, A,2- A,2- A,/ z/ | A, B,2 B, B,2 | B, B,2- B, G,2 | B, B,2 F, F,2 | %15
 A, B,2- B,2- B,/ z/ | B, B,2 B, B,2 | B, B,2- B,2- B,/ z/ | B, B,2 B, D2 | B, A,2- A,2- A,/ z/ | %20
 A, B,2 B, B,2 | B, B,2- B, G,2 | B, B,2 F, F,2 | A, B,2- B,3- | B,3 z3 |] %25
V:4
 B,, B,,2 B,, B,,2 | B,, B,,2- B,, B,,2 | B,, B,,2 B,, B,,2 | B,, B,,2- B,,2- B,,/ z/ | %4
 B,, B,,2 B,, B,,2 | B,, B,,2- B,, B,,2 | B,, C,2 C, C,2 | C, F,2- F,2- F,/ z/ | F, F,2 F, F,2 | %9
 F, F,2- F, F,2 | E, D,2 .F,3 | G, F,2- F,2- F,/ z/ | F, B,,2 B,, B,,2 | B,, E,2- E, E,2 | %14
 E, F,2 z3 | F, [B,,F,]2- [B,,F,]2- [B,,F,]/ z/ | B,, B,,2 B,, E,2 | E, B,,2- B,,2- B,,/ z/ | %18
 .B,,3 z B,,2 | D, F,2- F,2- F,/ z/ | F, B,,2 B,, B,,2 | B,, E,2- E, E,2 | E, F,2 z3 | %23
 F, [B,,F,]2- [B,,F,]3- | [B,,F,]3 z3 |] %25

